X: 22687
T: Lalabee
R: reel
M: 4/4
K: Aminor
M: 7/8
|:AB cdB2G|[M: 9/8] A2 AG ABc z2|[M: 7/8] AB cd B2G|A2AGA2 z|
AB cd B2G|[M: 9/8] A2 AG ABc z2|[M: 7/8] AB cd B2G|1 A2 AG A2 z:|2 A2 AG ABc||
e4-e3-|e2 dc dec|z2 e2-e3-|e2 dc dec|B4-B3|
z2 d2-d3-|d2 cB cdB|[M: 4/4] z2 d2 c2 B2|[M: 10/8] A3 e2-e2-e3-|
M: 7/8
e2 dc dec|z2 e2-e3-|e2 dc dec|
M: 4/4
z2 d2 c2 B2|[M: 9/8] A2-A2-A3-A2-|A2-A2-A3-A2||

